X: 214
M: C|
L: 1/8
K: D
g |\
fdge f2de |
fdge d3e | fdgf e2de | (fd)(ge) (fd)(ge) |\
(fe)(gf) e2de | (f/g/a) ef d3 |]

